X: 36
T: No_31_Turkey_Dance_Song_(b).krn
N: Derived from No_31_Turkey_Dance_Song_(b).krn
%%abc-version 2.0
%%abcx-abcm2ps-target-version 5.9.1 (29 Sep 2008)
%%abc-creator hum2abc beta
%%abcx-conversion-date 2019/03/15 08:36:49
%%humdrum-veritas 3347379370
%%humdrum-veritas-data 4202727605
%%linebreak <none>
%%barnumbers 0
L: 1/8
M: 2/4
%%staves {1 2}
V: 1 clef=treble
V: 2 clef=bass
K: A
[V:1] [K:clef=treble][M:2/4]A2AF ||  
[V:2] [K:clef=bass][M:2/4]G,,G,, G,,G,, ||  
[V:1] [M:3/4]A2AA FF | 
[V:2] [M:3/4]G,,G,, G,,G,,z2 | 
[V:1] F6 ||  
[V:2] z6 ||  
[V:1] [M:2/4]FF FF | 
[V:2] [M:2/4]z4 | 
[V:1] AA EE | 
[V:2] z4 | 
[V:1] FF CC | 
[V:2] z4 | 
[V:1] B,4[K:clef=bass] | 
[V:2] z4 | 
[V:1] CB, A,A, | 
[V:2] z4 | 
[V:1] B,B, A,A, | 
[V:2] z4 | 
[V:1] F,4 | 
[V:2] z4 | 
[V:1] B,B, A,F, ||  
[V:2] z4 ||  
[V:1] [M:3/4]A,A, A,A, F,F, | 
[V:2] [M:3/4]z6 | 
[V:1] F,6 |]  
[V:2] z6 |]  



